X:72
T:Lewis the 18th. RH.072
R:March
S:Rev.R.Harrison’s MS,c1815,Cumbria
O:England
A:Temple Sowerby,Cumbria
Z:vmp.Simon Wilson. Review PJH, 2008.
M:2/4
L:1/16
Q:1/4=80
K:D
dafd A2A2|BcdB B2A2|dAdf eAeg|fdaf f2e2|!
dafd A2A2|BcdB B2A2|FA de/f/ gedc|d2d2 d4:|!
|:agag gfge|fdaf f2e2|dfad’ bagf|efge dcBA|!
agaf gfge|fdaf f2e2|FAdf gedc|d2d2 d4|]

